X: 1304
T: the Satin Slipper   #2
R: reel
%S: s:2 b:12(6+6)
B: O'Neill's 1850 #1304
O: McFadden
Z: Trish O'Neil
N: Compacted via repeats and multiple endings [JC]
M: C|
L: 1/8
K: Bm
"^A"|: A2-AB AFFA | dcBA BAFA |1 dcBd cBAc | BAFA (3(Bcd) cB :|2 dfed cedc | BAFA B3 ||
"^B"|:: c | defg agab |1 afeg fBB :|2 afeg fdd :|3 afec defg | agfe fedc | dcBA (3(Bcd) cB |]
